public/img/events/festival-of-blades.svg

<svg width="200" height="200" viewBox="0 0 200 200" fill="none" xmlns="http://www.w3.org/2000/svg">
<g clip-path="url(#clip0_501_29952)">
<path d="M79.5969 31.5957C81.0013 38.1532 80.9902 44.9756 79.9387 51.5847C78.8947 58.1495 76.8624 64.5267 74.3099 70.6573C72.8424 74.1863 71.1816 77.638 69.4316 81.0382C68.9561 81.9618 70.1004 82.8818 70.8918 82.1532C71.3042 81.7742 71.7649 82.4844 71.9247 82.7567C72.1216 83.0952 72.0659 83.3491 72.0287 83.7282C71.9767 84.2691 71.9098 84.8064 71.8281 85.34C71.5085 87.3639 70.9438 89.2774 70.1636 91.1725C68.6923 94.7493 66.9869 98.2341 65.1218 101.631C61.4287 108.354 57.0855 114.701 52.5081 120.858C49.9259 124.328 47.2657 127.743 44.5944 131.147C44.286 131.537 44.208 132.067 44.5944 132.449C44.9139 132.766 45.5975 132.843 45.9096 132.449C51.022 125.94 56.1046 119.393 60.6819 112.497C65.2779 105.575 69.3313 98.293 72.3965 90.5727C73.2956 88.3096 73.7601 85.7778 73.9235 83.3565C74.0647 81.2259 71.3934 79.1725 69.584 80.8468C70.0707 81.2185 70.5574 81.5902 71.0441 81.9618C74.2022 75.8275 77.0482 69.5092 79.1288 62.9296C81.1908 56.409 82.48 49.6123 82.5506 42.7677C82.5915 38.8524 82.2163 34.9297 81.3952 31.0989C81.1388 29.9471 79.348 30.4402 79.5969 31.5957Z" fill="black"/>
<path d="M79.9085 31.5699C83.9211 36.431 86.9454 42.0538 89.2749 47.8754C91.8311 54.2673 93.7371 60.9204 95.2567 67.6215C96.8023 74.4402 97.7943 81.3547 97.7126 88.3537C97.6308 95.1688 96.4382 101.925 94.3873 108.427C92.5482 114.26 89.7951 119.875 85.8457 124.6C85.3032 125.248 84.7385 125.881 84.1589 126.495C83.3452 127.36 84.653 128.663 85.4741 127.798C89.9289 123.073 93.1575 117.406 95.3607 111.342C97.6977 104.902 99.0947 98.0465 99.4774 91.2167C99.8749 84.0594 99.1133 76.8505 97.6457 69.8441C96.193 62.8928 94.3167 56.0152 91.8311 49.3547C89.5647 43.2792 86.6705 37.3804 82.7396 32.1845C82.2492 31.5368 81.7439 30.8965 81.2274 30.271C80.9079 29.8846 80.2429 29.9434 79.9122 30.271C79.5258 30.65 79.5927 31.1836 79.9085 31.5699Z" fill="black"/>
<path d="M84.0143 126.687C81.9523 129.609 78.9243 131.666 76.0634 133.748C72.6638 136.221 69.2457 138.665 65.7347 140.979C59.0098 145.41 51.9209 149.299 44.5384 152.541C40.2658 154.418 35.889 156.07 31.4492 157.513C30.3197 157.881 30.8027 159.658 31.9433 159.287C39.9239 156.696 47.6779 153.414 55.0753 149.465C62.4689 145.52 69.4017 140.865 76.1637 135.949C79.5707 133.472 83.1709 131.092 85.6231 127.614C85.9092 127.206 85.6974 126.591 85.2887 126.356C84.8206 126.087 84.3041 126.278 84.0143 126.687Z" fill="black"/>
<path d="M44.9502 130.845C40.8633 135.327 36.0704 139.132 30.672 141.962C29.1896 142.738 27.67 143.441 26.117 144.063C25.6525 144.251 25.3256 144.678 25.4668 145.196C25.5894 145.634 26.143 146.024 26.6111 145.84C32.4405 143.507 37.7907 140.173 42.4349 135.971C43.7761 134.76 45.0505 133.48 46.2654 132.148C47.0643 131.268 45.7527 129.962 44.9502 130.845Z" fill="black"/>
<path d="M25.2887 145.572C27.0089 149.774 28.7291 153.98 30.4531 158.183C30.6425 158.643 31.0698 158.966 31.5974 158.827C32.0395 158.705 32.4371 158.157 32.2476 157.693C30.5274 153.491 28.8072 149.285 27.0832 145.082C26.8937 144.622 26.4665 144.299 25.9389 144.438C25.4967 144.56 25.0992 145.108 25.2887 145.572Z" fill="black"/>
<path d="M26.6153 143.931C25.3483 143.353 24.0814 142.775 22.8145 142.197C22.5804 142.091 22.3537 142.035 22.0974 142.105C21.8819 142.164 21.6478 142.33 21.5438 142.529C21.3283 142.933 21.4063 143.574 21.8782 143.787C23.1451 144.365 24.4121 144.943 25.679 145.52C25.9131 145.627 26.1397 145.682 26.3961 145.612C26.6116 145.553 26.8456 145.388 26.9497 145.189C27.1652 144.784 27.0871 144.148 26.6153 143.931Z" fill="black"/>
<path d="M30.7468 157.557C30.4124 158.33 30.0186 159.08 29.5653 159.791C29.3424 160.14 29.1046 160.483 28.852 160.814C28.8223 160.854 28.7888 160.895 28.7591 160.935C28.8074 160.869 28.8223 160.854 28.7628 160.928C28.6997 161.005 28.6365 161.086 28.5733 161.163C28.4284 161.34 28.2798 161.509 28.1275 161.678C27.8043 162.039 27.7448 162.632 28.1275 162.981C28.4805 163.301 29.0972 163.364 29.4427 162.981C30.6465 161.645 31.6422 160.133 32.3519 158.488C32.5414 158.046 32.5005 157.48 32.0175 157.23C31.6162 157.02 30.9512 157.086 30.7468 157.557Z" fill="black"/>
<path d="M21.3171 143.294C23.5909 149.59 25.7421 155.927 27.7744 162.3C28.1348 163.426 29.9256 162.944 29.5652 161.811C27.5329 155.437 25.378 149.101 23.1079 142.804C22.9407 142.337 22.4762 142.024 21.9635 142.16C21.5102 142.289 21.1499 142.827 21.3171 143.294Z" fill="black"/>
<path d="M26.0949 149.546C27.2913 149.546 27.2913 147.706 26.0949 147.706C24.8986 147.706 24.8949 149.546 26.0949 149.546Z" fill="black"/>
<path d="M27.4549 152.873C28.6512 152.873 28.6512 151.033 27.4549 151.033C26.2585 151.033 26.2585 152.873 27.4549 152.873Z" fill="black"/>
<path d="M28.7483 156.026C29.9446 156.026 29.9446 154.186 28.7483 154.186C27.5519 154.186 27.5482 156.026 28.7483 156.026Z" fill="black"/>
<path d="M23.7617 147.68C18.7497 149.701 13.6856 151.588 8.56954 153.336C8.09397 153.498 7.78188 153.965 7.91935 154.47C8.04567 154.926 8.5844 155.275 9.06369 155.114C14.176 153.362 19.2438 151.474 24.2559 149.458C24.7203 149.27 25.0472 148.847 24.9061 148.324C24.7834 147.886 24.2299 147.489 23.7617 147.68Z" fill="black"/>
<path d="M26.9501 156.471C21.9381 158.484 16.9298 160.497 11.9177 162.506C11.4533 162.694 11.1264 163.117 11.2675 163.64C11.3902 164.078 11.9437 164.471 12.4119 164.284C17.4239 162.271 22.4323 160.258 27.4443 158.249C27.9087 158.061 28.2357 157.638 28.0945 157.115C27.9719 156.678 27.4183 156.284 26.9501 156.471Z" fill="black"/>
<path fill-rule="evenodd" clip-rule="evenodd" d="M0.669922 154.509L7.88309 151.612L14.2248 167.101L7.01164 169.998L0.669922 154.509ZM2.60563 155.32L7.83036 168.081L12.2891 166.29L7.06437 153.529L2.60563 155.32Z" fill="black"/>
<path d="M2.83326 157.951C1.29138 158.341 0.221342 159.721 0.0244275 161.252C-0.165057 162.749 0.767504 164.24 2.13848 164.858C2.96329 165.23 3.85127 165.358 4.73553 165.126C5.20738 165.005 5.53805 164.464 5.38572 163.993C5.22967 163.515 4.74667 163.22 4.24138 163.349C4.1485 163.375 4.0519 163.393 3.9553 163.408C4.18937 163.368 3.95901 163.401 3.91443 163.401C3.81783 163.404 3.72123 163.397 3.62463 163.397C3.42771 163.397 3.79182 163.437 3.58376 163.393C3.41657 163.356 3.25681 163.316 3.09333 163.264C2.87041 163.195 3.25681 163.353 3.04503 163.246C2.95958 163.202 2.87041 163.158 2.78496 163.11C2.72179 163.073 2.66235 163.029 2.59919 162.992C2.44686 162.896 2.70693 163.088 2.52859 162.937C2.4097 162.834 2.30196 162.72 2.19793 162.602C2.13105 162.521 2.13848 162.528 2.20907 162.617C2.17935 162.576 2.15334 162.54 2.12733 162.499C2.09018 162.44 2.05303 162.378 2.01959 162.311C1.9973 162.267 1.975 162.227 1.95643 162.183C1.9973 162.282 2.00472 162.3 1.98243 162.238C1.95643 162.157 1.92671 162.08 1.90441 161.995C1.88584 161.925 1.87469 161.855 1.85982 161.781C1.90812 162.028 1.85982 161.723 1.85982 161.667C1.85982 161.597 1.85983 161.524 1.86354 161.454C1.86726 161.406 1.87097 161.358 1.87469 161.31C1.85983 161.425 1.85611 161.447 1.86726 161.377C1.92299 161.241 1.949 161.068 1.98987 160.924C2.02702 160.828 2.0233 160.832 1.975 160.942C1.99358 160.898 2.01587 160.854 2.03817 160.81C2.07161 160.744 2.10504 160.681 2.1422 160.619C2.1905 160.534 2.24622 160.457 2.30196 160.376C2.2165 160.505 2.27967 160.402 2.33911 160.335C2.45057 160.207 2.57689 160.096 2.70693 159.986C2.53974 160.126 2.72179 159.982 2.75523 159.96C2.83697 159.908 2.92243 159.864 3.00788 159.816C3.17136 159.721 2.85555 159.857 3.05246 159.794C3.14535 159.765 3.23823 159.735 3.33112 159.71C3.80297 159.592 4.13364 159.044 3.98131 158.576C3.82155 158.113 3.33855 157.826 2.83326 157.951Z" fill="black"/>
<path d="M118.619 31.1062C117.159 37.9176 117.17 44.9314 118.233 51.7944C119.269 58.488 121.335 64.9903 123.943 71.235C125.467 74.8818 127.161 78.4512 128.97 81.9655C129.457 81.5938 129.944 81.2222 130.43 80.8505C129.676 80.1513 128.639 80.0777 127.729 80.523C126.982 80.891 126.399 81.7263 126.165 82.5138C126.02 83.0032 126.098 83.5037 126.15 84.0041C126.213 84.615 126.295 85.2221 126.392 85.8293C126.559 86.8928 126.785 87.9452 127.079 88.983C127.662 91.0253 128.591 92.9977 129.464 94.9333C130.319 96.8247 131.233 98.6941 132.195 100.534C136.014 107.827 140.629 114.676 145.53 121.296C148.32 125.064 151.207 128.762 154.105 132.453C154.413 132.847 155.093 132.773 155.42 132.453C155.81 132.067 155.728 131.544 155.42 131.15C150.66 125.086 145.935 118.985 141.625 112.597C137.315 106.208 133.432 99.5221 130.386 92.4457C129.49 90.3703 128.725 88.3132 128.313 86.0869C128.212 85.5497 128.127 85.0124 128.064 84.4678C128.012 84.0409 127.837 83.4153 127.96 83.0032C128.06 82.672 128.658 81.7226 129.119 82.1495C129.903 82.8744 131.058 81.9655 130.579 81.0345C127.506 75.0658 124.742 68.9314 122.71 62.5322C120.689 56.1624 119.407 49.5533 119.329 42.867C119.284 39.0805 119.622 35.2976 120.417 31.592C120.659 30.4402 118.868 29.9471 118.619 31.1062Z" fill="black"/>
<path d="M118.783 30.2672C114.607 35.327 111.475 41.0971 109.034 47.1504C106.414 53.6417 104.479 60.4089 102.937 67.224C101.35 74.2268 100.332 81.3546 100.44 88.5451C100.544 95.5294 101.777 102.499 103.903 109.156C105.842 115.22 108.74 120.99 112.846 125.907C113.388 126.554 113.953 127.187 114.532 127.802C115.35 128.67 116.661 127.368 115.848 126.499C111.564 121.954 108.45 116.464 106.355 110.621C104.096 104.313 102.717 97.6269 102.376 90.9443C102.019 83.971 102.755 76.9756 104.196 70.1495C105.63 63.3528 107.462 56.626 109.873 50.1017C112.062 44.1845 114.882 38.4586 118.671 33.3804C119.132 32.7659 119.608 32.1624 120.098 31.5662C120.414 31.1835 120.477 30.6426 120.098 30.2636C119.771 29.9434 119.102 29.8809 118.783 30.2672Z" fill="black"/>
<path d="M114.388 127.614C116.554 130.687 119.615 132.88 122.632 135.066C126.087 137.568 129.55 140.063 133.11 142.418C139.924 146.922 147.113 150.878 154.607 154.164C159.002 156.092 163.494 157.804 168.064 159.287C169.201 159.655 169.691 157.881 168.558 157.513C160.752 154.981 153.18 151.772 145.946 147.92C138.66 144.037 131.817 139.467 125.147 134.628C121.904 132.273 118.326 130.002 115.989 126.687C115.703 126.278 115.175 126.091 114.718 126.356C114.317 126.591 114.102 127.206 114.388 127.614Z" fill="black"/>
<path d="M153.744 132.144C157.961 136.77 162.955 140.714 168.531 143.618C170.114 144.442 171.742 145.174 173.399 145.837C173.863 146.024 174.42 145.634 174.543 145.193C174.688 144.667 174.361 144.247 173.893 144.059C168.327 141.833 163.192 138.58 158.775 134.562C157.478 133.38 156.241 132.137 155.059 130.841C154.253 129.962 152.945 131.268 153.744 132.144Z" fill="black"/>
<path d="M172.927 145.082C171.207 149.285 169.487 153.491 167.763 157.693C167.573 158.153 167.967 158.705 168.413 158.827C168.944 158.97 169.368 158.646 169.557 158.183C171.277 153.98 172.998 149.774 174.721 145.572C174.911 145.112 174.517 144.56 174.071 144.438C173.54 144.295 173.116 144.619 172.927 145.082Z" fill="black"/>
<path d="M174.327 145.52C175.594 144.943 176.861 144.365 178.128 143.787C178.57 143.585 178.715 142.919 178.462 142.529C178.169 142.076 177.664 141.984 177.192 142.197C175.925 142.775 174.658 143.353 173.391 143.931C172.949 144.133 172.804 144.799 173.056 145.189C173.35 145.642 173.855 145.737 174.327 145.52Z" fill="black"/>
<path d="M167.658 158.484C168.368 160.133 169.363 161.642 170.567 162.977C170.89 163.338 171.555 163.331 171.882 162.977C172.239 162.591 172.228 162.061 171.882 161.675C171.737 161.517 171.596 161.355 171.459 161.189C171.396 161.112 171.329 161.034 171.266 160.954C171.254 160.939 171.154 160.81 171.221 160.898C171.288 160.987 171.191 160.858 171.176 160.843C170.916 160.501 170.671 160.151 170.441 159.787C169.987 159.077 169.594 158.326 169.259 157.553C169.066 157.108 168.375 156.976 167.989 157.222C167.524 157.524 167.45 158.01 167.658 158.484Z" fill="black"/>
<path d="M176.899 142.804C174.625 149.101 172.474 155.437 170.441 161.811C170.081 162.944 171.872 163.426 172.232 162.3C174.264 155.927 176.419 149.59 178.689 143.294C178.857 142.827 178.5 142.286 178.039 142.16C177.526 142.024 177.066 142.337 176.899 142.804Z" fill="black"/>
<path d="M173.915 149.546C175.112 149.546 175.112 147.706 173.915 147.706C172.719 147.706 172.715 149.546 173.915 149.546Z" fill="black"/>
<path d="M172.552 152.873C173.748 152.873 173.748 151.033 172.552 151.033C171.355 151.033 171.355 152.873 172.552 152.873Z" fill="black"/>
<path d="M171.263 156.026C172.459 156.026 172.459 154.186 171.263 154.186C170.067 154.186 170.063 156.026 171.263 156.026Z" fill="black"/>
<path d="M175.75 149.454C180.762 151.474 185.826 153.362 190.942 155.11C191.418 155.272 191.957 154.926 192.087 154.466C192.228 153.962 191.912 153.498 191.437 153.333C186.324 151.581 181.256 149.693 176.244 147.677C175.78 147.489 175.223 147.879 175.1 148.321C174.955 148.847 175.282 149.266 175.75 149.454Z" fill="black"/>
<path d="M172.563 158.249C177.575 160.262 182.583 162.275 187.595 164.284C188.06 164.471 188.617 164.081 188.74 163.64C188.884 163.114 188.557 162.694 188.089 162.506C183.077 160.494 178.069 158.481 173.057 156.471C172.593 156.284 172.035 156.674 171.913 157.115C171.768 157.642 172.095 158.061 172.563 158.249Z" fill="black"/>
<path fill-rule="evenodd" clip-rule="evenodd" d="M193.013 170L185.8 167.103L192.141 151.614L199.354 154.511L193.013 170ZM192.194 168.083L197.419 155.322L192.96 153.531L187.735 166.292L192.194 168.083Z" fill="black"/>
<path d="M196.68 159.728C196.776 159.754 196.866 159.78 196.958 159.813C197.178 159.886 196.802 159.724 197.003 159.835C197.088 159.883 197.174 159.927 197.256 159.978C197.297 160.004 197.471 160.14 197.304 160.004C197.434 160.111 197.56 160.225 197.672 160.354C197.705 160.39 197.817 160.567 197.709 160.394C197.761 160.475 197.82 160.552 197.869 160.637C197.906 160.7 197.939 160.762 197.973 160.828C197.995 160.873 198.014 160.917 198.036 160.961C197.995 160.862 197.988 160.847 198.01 160.909C198.051 161.06 198.099 161.207 198.136 161.362C198.155 161.465 198.155 161.458 198.136 161.329C198.14 161.377 198.147 161.425 198.147 161.472C198.151 161.542 198.155 161.616 198.151 161.686C198.151 161.712 198.125 161.991 198.144 161.851C198.162 161.712 198.114 161.988 198.106 162.013C198.088 162.083 198.062 162.153 198.043 162.219C198.006 162.315 198.01 162.311 198.054 162.201C198.036 162.245 198.014 162.289 197.991 162.33C197.958 162.392 197.921 162.455 197.884 162.517C197.858 162.558 197.832 162.598 197.802 162.635C197.869 162.554 197.88 162.54 197.835 162.591C197.724 162.701 197.627 162.823 197.508 162.93C197.471 162.963 197.434 162.992 197.397 163.022C197.49 162.952 197.493 162.948 197.408 163.007C197.345 163.047 197.285 163.088 197.222 163.125C197.137 163.172 197.051 163.217 196.962 163.261C196.791 163.349 197.114 163.22 196.914 163.279C196.75 163.327 196.591 163.375 196.423 163.408C196.193 163.452 196.617 163.404 196.383 163.412C196.286 163.415 196.189 163.419 196.093 163.415C196.037 163.412 195.818 163.382 196.052 163.423C195.955 163.408 195.862 163.386 195.766 163.364C195.298 163.242 194.737 163.518 194.621 164.008C194.51 164.49 194.766 165.009 195.272 165.141C196.821 165.542 198.422 164.873 199.359 163.629C200.273 162.414 200.176 160.644 199.288 159.445C198.76 158.731 198.051 158.186 197.174 157.965C196.702 157.848 196.145 158.116 196.03 158.609C195.922 159.073 196.174 159.599 196.68 159.728Z" fill="black"/>
</g>
<defs>
<clipPath id="clip0_501_29952">
<rect width="200" height="200" fill="white"/>
</clipPath>
</defs>
</svg>

<svg xmlns="http://www.w3.org/2000/svg" width="200" height="200" fill="none"><g fill="#000" clip-path="url(#a)"><path d="M79.597 31.596c1.404 6.557 1.393 13.38.342 19.989-1.044 6.565-3.077 12.942-5.63 19.072-1.467 3.53-3.127 6.981-4.877 10.381-.476.924.668 1.844 1.46 1.115.412-.379.873.331 1.033.604.197.338.14.592.104.971q-.079.811-.2 1.612c-.32 2.024-.885 3.937-1.665 5.832-1.472 3.577-3.177 7.062-5.042 10.459-3.693 6.723-8.036 13.07-12.614 19.227-2.582 3.47-5.242 6.885-7.914 10.289-.308.39-.386.92 0 1.302.32.317 1.003.394 1.316 0 5.112-6.509 10.195-13.056 14.772-19.952 4.596-6.922 8.65-14.204 11.715-21.924.899-2.263 1.363-4.795 1.526-7.216.142-2.131-2.53-4.184-4.339-2.51l1.46 1.115c3.158-6.135 6.004-12.453 8.085-19.032 2.062-6.521 3.351-13.318 3.422-20.162a53 53 0 0 0-1.156-11.67c-.256-1.15-2.047-.658-1.798.498"/><path d="M79.909 31.57c4.012 4.861 7.036 10.484 9.366 16.305 2.556 6.392 4.462 13.045 5.982 19.746 1.545 6.82 2.537 13.734 2.456 20.733-.082 6.815-1.275 13.571-3.326 20.073-1.839 5.833-4.592 11.448-8.541 16.173a43 43 0 0 1-1.687 1.895c-.814.865.494 2.168 1.315 1.303 4.455-4.725 7.683-10.392 9.887-16.456a71 71 0 0 0 4.116-20.125c.398-7.158-.364-14.367-1.831-21.373-1.453-6.951-3.33-13.829-5.815-20.49-2.266-6.075-5.16-11.974-9.091-17.17a58 58 0 0 0-1.513-1.913c-.32-.386-.984-.328-1.315 0-.386.379-.32.913-.004 1.299"/><path d="M84.014 126.687c-2.062 2.922-5.09 4.979-7.95 7.061-3.4 2.473-6.818 4.917-10.33 7.231-6.724 4.431-13.813 8.32-21.196 11.562a141 141 0 0 1-13.089 4.972c-1.13.368-.646 2.145.494 1.774a142.7 142.7 0 0 0 23.132-9.822c7.394-3.945 14.327-8.6 21.089-13.516 3.407-2.477 7.007-4.857 9.46-8.335.285-.408.073-1.023-.335-1.258-.468-.269-.985-.078-1.275.331M44.95 130.845c-4.087 4.482-8.88 8.287-14.278 11.117a50 50 0 0 1-4.555 2.101c-.465.188-.791.615-.65 1.133.122.438.676.828 1.144.644a52.8 52.8 0 0 0 15.824-9.869 56 56 0 0 0 3.83-3.823c.8-.88-.512-2.186-1.315-1.303"/><path d="M25.289 145.572q2.579 6.305 5.164 12.611c.19.46.617.783 1.144.644.442-.122.84-.67.65-1.134q-2.579-6.305-5.164-12.611c-.19-.46-.616-.783-1.144-.644-.442.122-.84.67-.65 1.134"/><path d="m26.615 143.931-3.8-1.734c-.235-.106-.461-.162-.718-.092-.215.059-.45.225-.553.424-.216.404-.138 1.045.334 1.258l3.801 1.733c.234.107.46.162.717.092.216-.059.45-.224.554-.423.215-.405.137-1.041-.335-1.258M30.747 157.557a16 16 0 0 1-1.182 2.234q-.334.525-.713 1.023l-.093.121c.048-.066.063-.081.004-.007l-.19.235q-.217.263-.445.515c-.324.361-.383.954 0 1.303.352.32.97.383 1.315 0a16.5 16.5 0 0 0 2.909-4.493c.19-.442.149-1.008-.334-1.258-.402-.21-1.067-.144-1.271.327"/><path d="M21.317 143.294a530 530 0 0 1 6.457 19.006c.36 1.126 2.152.644 1.791-.489a538 538 0 0 0-6.457-19.007c-.167-.467-.632-.78-1.145-.644-.453.129-.813.667-.646 1.134"/><path d="M26.095 149.546c1.196 0 1.196-1.84 0-1.84s-1.2 1.84 0 1.84M27.455 152.873c1.196 0 1.196-1.84 0-1.84s-1.196 1.84 0 1.84M28.748 156.026c1.197 0 1.197-1.84 0-1.84-1.196 0-1.2 1.84 0 1.84"/><path d="M23.762 147.68a300 300 0 0 1-15.192 5.656c-.476.162-.788.629-.65 1.134.126.456.664.805 1.144.644a310 310 0 0 0 15.192-5.656c.464-.188.791-.611.65-1.134-.123-.438-.676-.835-1.144-.644M26.95 156.471c-5.012 2.013-10.02 4.026-15.032 6.035-.465.188-.792.611-.65 1.134.122.438.676.831 1.144.644q7.516-3.02 15.032-6.035c.465-.188.792-.611.65-1.134-.122-.437-.676-.831-1.144-.644"/><path fill-rule="evenodd" d="m.67 154.509 7.213-2.897 6.342 15.489-7.213 2.897zm1.936.811 5.224 12.761 4.46-1.791-5.226-12.761z" clip-rule="evenodd"/><path d="M2.833 157.951c-1.542.39-2.612 1.77-2.809 3.301-.19 1.497.744 2.988 2.114 3.606.825.372 1.713.5 2.598.268.471-.121.802-.662.65-1.133a.95.95 0 0 0-1.145-.644 3 3 0 0 1-.286.059c.234-.04.004-.007-.04-.007-.097.003-.194-.004-.29-.004-.197 0 .167.04-.041-.004a6 6 0 0 1-.49-.129c-.224-.069.163.089-.049-.018-.085-.044-.175-.088-.26-.136-.063-.037-.123-.081-.186-.118-.152-.096.108.096-.07-.055a4 4 0 0 1-.331-.335c-.067-.081-.06-.074.011.015a2 2 0 0 1-.19-.306c-.022-.044-.044-.084-.063-.128q.061.148.026.055c-.026-.081-.055-.158-.078-.243q-.025-.104-.044-.214c.048.247 0-.058 0-.114q-.001-.107.004-.213l.01-.144q-.022.172-.007.067c.056-.136.082-.309.123-.453q.056-.145-.015.018.028-.066.063-.132.05-.099.104-.191c.049-.085.104-.162.16-.243-.086.129-.022.026.037-.041a3.3 3.3 0 0 1 .368-.349c-.167.14.015-.004.048-.026.082-.052.167-.096.253-.144.163-.095-.152.041.044-.022q.14-.045.28-.084c.471-.118.802-.666.65-1.134a.963.963 0 0 0-1.149-.625M118.619 31.106c-1.46 6.812-1.449 13.825-.386 20.688 1.036 6.694 3.102 13.196 5.71 19.441 1.524 3.647 3.218 7.216 5.027 10.73l1.46-1.115c-.754-.699-1.791-.772-2.701-.327-.747.368-1.33 1.203-1.564 1.99-.145.49-.067.99-.015 1.491q.095.916.242 1.825c.167 1.064.393 2.116.687 3.154.583 2.042 1.512 4.015 2.385 5.95a109 109 0 0 0 2.731 5.601c3.819 7.293 8.434 14.142 13.335 20.762 2.79 3.768 5.677 7.466 8.575 11.157.308.394.988.32 1.315 0 .39-.386.308-.909 0-1.303-4.76-6.064-9.485-12.165-13.795-18.553s-8.193-13.075-11.239-20.151c-.896-2.076-1.661-4.133-2.073-6.36a23 23 0 0 1-.249-1.618c-.052-.427-.227-1.053-.104-1.465.1-.331.698-1.28 1.159-.853.784.724 1.939-.184 1.46-1.116-3.073-5.968-5.837-12.103-7.869-18.502-2.021-6.37-3.303-12.979-3.381-19.665-.045-3.786.293-7.57 1.088-11.275.242-1.152-1.549-1.645-1.798-.486"/><path d="M118.783 30.267c-4.176 5.06-7.308 10.83-9.749 16.883-2.62 6.492-4.555 13.259-6.097 20.074-1.587 7.003-2.605 14.13-2.497 21.321.104 6.984 1.337 13.954 3.463 20.611 1.939 6.064 4.837 11.834 8.943 16.751.542.647 1.107 1.28 1.686 1.895.818.868 2.129-.434 1.316-1.303-4.284-4.545-7.398-10.035-9.493-15.878-2.259-6.308-3.638-12.994-3.979-19.677-.357-6.973.379-13.968 1.82-20.794 1.434-6.797 3.266-13.524 5.677-20.048 2.189-5.917 5.009-11.643 8.798-16.722q.692-.92 1.427-1.814c.316-.383.379-.923 0-1.302-.327-.32-.996-.383-1.315.003"/><path d="M114.388 127.614c2.166 3.073 5.227 5.266 8.244 7.452 3.455 2.502 6.918 4.997 10.478 7.352 6.814 4.504 14.003 8.46 21.497 11.746a145 145 0 0 0 13.457 5.123c1.137.368 1.627-1.406.494-1.774a140 140 0 0 1-22.612-9.593c-7.286-3.883-14.129-8.453-20.799-13.292-3.243-2.355-6.821-4.626-9.158-7.941-.286-.409-.814-.596-1.271-.331-.401.235-.616.85-.33 1.258M153.744 132.144c4.217 4.626 9.211 8.57 14.787 11.474a54 54 0 0 0 4.868 2.219c.464.187 1.021-.203 1.144-.644.145-.526-.182-.946-.65-1.134-5.566-2.226-10.701-5.479-15.118-9.497a57 57 0 0 1-3.716-3.721c-.806-.879-2.114.427-1.315 1.303"/><path d="M172.927 145.082q-2.579 6.306-5.164 12.611c-.19.46.204 1.012.65 1.134.531.143.955-.181 1.144-.644q2.58-6.306 5.164-12.611c.19-.46-.204-1.012-.65-1.134-.531-.143-.955.181-1.144.644"/><path d="m174.327 145.52 3.801-1.733c.442-.202.587-.868.334-1.258-.293-.453-.798-.545-1.27-.332l-3.801 1.734c-.442.202-.587.868-.335 1.258.294.453.799.548 1.271.331M167.658 158.484a16.4 16.4 0 0 0 2.909 4.493c.323.361.988.354 1.315 0 .357-.386.346-.916 0-1.302q-.218-.237-.423-.486-.096-.115-.193-.235c-.012-.015-.112-.144-.045-.056.067.089-.03-.04-.045-.055q-.39-.511-.735-1.056a16 16 0 0 1-1.182-2.234c-.193-.445-.884-.577-1.27-.331-.465.302-.539.788-.331 1.262"/><path d="M176.899 142.804a531 531 0 0 0-6.458 19.007c-.36 1.133 1.431 1.615 1.791.489a537 537 0 0 1 6.457-19.006c.168-.467-.189-1.008-.65-1.134-.513-.136-.973.177-1.14.644"/><path d="M173.915 149.546c1.197 0 1.197-1.84 0-1.84-1.196 0-1.2 1.84 0 1.84M172.552 152.873c1.196 0 1.196-1.84 0-1.84-1.197 0-1.197 1.84 0 1.84M171.263 156.026c1.196 0 1.196-1.84 0-1.84s-1.2 1.84 0 1.84"/><path d="M175.75 149.454a301 301 0 0 0 15.192 5.656c.476.162 1.015-.184 1.145-.644.141-.504-.175-.968-.65-1.133a310 310 0 0 1-15.193-5.656c-.464-.188-1.021.202-1.144.644-.145.526.182.945.65 1.133M172.563 158.249q7.516 3.02 15.032 6.035c.465.187 1.022-.203 1.145-.644.144-.526-.183-.946-.651-1.134q-7.516-3.019-15.032-6.035c-.464-.187-1.022.203-1.144.644-.145.527.182.946.65 1.134"/><path fill-rule="evenodd" d="m193.013 170-7.213-2.897 6.341-15.489 7.213 2.897zm-.819-1.917 5.225-12.761-4.459-1.791-5.225 12.761z" clip-rule="evenodd"/><path d="M196.68 159.728q.142.037.278.085c.22.073-.156-.089.045.022.085.048.171.092.253.143.041.026.215.162.048.026.13.107.256.221.368.35.033.036.145.213.037.04.052.081.111.158.16.243q.054.093.104.191.031.067.063.133-.06-.147-.026-.052c.041.151.089.298.126.453.019.103.019.096 0-.033.004.048.011.096.011.143.004.07.008.144.004.214 0 .026-.026.305-.007.165.018-.139-.03.137-.038.162-.018.07-.044.14-.063.206q-.055.145.011-.018-.028.067-.063.129-.05.093-.107.187a1 1 0 0 1-.082.118q.1-.121.033-.044c-.111.11-.208.232-.327.339q-.056.048-.111.092.139-.104.011-.015-.093.061-.186.118a6 6 0 0 1-.26.136c-.171.088.152-.041-.048.018-.164.048-.323.096-.491.129-.23.044.194-.004-.04.004-.097.003-.194.007-.29.003-.056-.003-.275-.033-.041.008q-.144-.024-.286-.059c-.468-.122-1.029.154-1.145.644-.111.482.145 1.001.651 1.133 1.549.401 3.15-.268 4.087-1.512.914-1.215.817-2.985-.071-4.184-.528-.714-1.237-1.259-2.114-1.48-.472-.117-1.029.151-1.144.644-.108.464.144.99.65 1.119"/></g><defs><clipPath id="a"><path fill="#fff" d="M0 0h200v200H0z"/></clipPath></defs></svg>
